ui_kit/lib/assets/icons/aspect_ratio.svg

<svg width="24" height="24" viewBox="0 0 24 24" fill="none" xmlns="http://www.w3.org/2000/svg">
<path fill-rule="evenodd" clip-rule="evenodd" d="M8.34742 3.7565C8.35101 3.3423 8.01815 3.00362 7.60395 3.00003C7.18975 2.99644 6.85107 3.3293 6.84748 3.7435L6.82081 6.82096L3.7435 6.84762C3.3293 6.85121 2.99644 7.1899 3.00003 7.6041C3.00362 8.01829 3.3423 8.35116 3.7565 8.34757L6.80781 8.32112L6.74998 14.9935L6.74995 15C6.74995 15.5967 6.987 16.169 7.40896 16.591C7.83092 17.0129 8.40321 17.25 8.99995 17.25H15.75V20.2501C15.75 20.6643 16.0858 21.0001 16.5 21.0001C16.9142 21.0001 17.25 20.6643 17.25 20.2501V17.25H20.25C20.6642 17.25 21 16.9142 21 16.5C21 16.0858 20.6642 15.75 20.25 15.75H17.25V9.0001C17.25 8.40336 17.0129 7.83106 16.591 7.40911C16.169 6.98715 15.5967 6.7501 15 6.7501L8.32098 6.80796L8.34742 3.7565ZM8.30798 8.30812L8.24996 15.0027C8.25067 15.2006 8.3296 15.3903 8.46962 15.5303C8.61027 15.671 8.80104 15.75 8.99995 15.75H15.75V9.0001C15.75 8.80118 15.671 8.61042 15.5303 8.46977C15.3903 8.32975 15.2006 8.25081 15.0027 8.2501L8.30798 8.30812Z" fill="white"/>
</svg>

<svg xmlns="http://www.w3.org/2000/svg" width="24" height="24" fill="none" viewBox="0 0 24 24"><path fill="#fff" fill-rule="evenodd" d="M8.347 3.756a.75.75 0 1 0-1.5-.012L6.821 6.82l-3.077.027a.75.75 0 0 0 .012 1.5l3.052-.027-.058 6.672V15A2.25 2.25 0 0 0 9 17.25h6.75v3a.75.75 0 0 0 1.5 0v-3h3a.75.75 0 0 0 0-1.5h-3V9A2.25 2.25 0 0 0 15 6.75l-6.679.058.026-3.051Zm-.039 4.552-.058 6.695a.75.75 0 0 0 .75.747h6.75V9a.75.75 0 0 0-.747-.75l-6.695.058Z" clip-rule="evenodd"/></svg>
